img/security2.svg

<svg width="94" height="72" viewBox="0 0 94 72" fill="none" xmlns="http://www.w3.org/2000/svg">
<g filter="url(#filter0_d)">
<path d="M62.5838 42.0593C61.862 42.0593 61.2744 41.4714 61.2744 40.7491C61.2744 40.0269 61.862 39.439 62.5838 39.439C63.3056 39.439 63.8931 40.0269 63.8931 40.7491C63.8931 41.4714 63.3056 42.0593 62.5838 42.0593Z" fill="#ED1C24"/>
<path d="M59.0251 14.9156C59.7575 14.9156 60.3512 14.3215 60.3512 13.5887C60.3512 12.8558 59.7575 12.2617 59.0251 12.2617C58.2927 12.2617 57.699 12.8558 57.699 13.5887C57.699 14.3215 58.2927 14.9156 59.0251 14.9156Z" fill="#ED1C24"/>
<path d="M88.3002 28.8066L65.4542 15.7387C64.8331 15.3859 64.0442 15.5707 63.6749 16.1754C63.272 16.8137 63.4734 17.6703 64.1449 18.0566L84.8758 29.9152L73.3773 35.6598L28.0378 9.49023L31.1936 4.98867C32.2176 3.51055 33.913 2.63711 35.7091 2.63711C36.6659 2.63711 37.6227 2.88906 38.4452 3.35937L52.5792 11.4387C53.2003 11.7914 53.9892 11.5898 54.3585 11.002C54.7614 10.3637 54.56 9.50703 53.9053 9.1207L39.7546 1.02461C38.5963 0.352734 37.2366 0 35.8434 0C33.124 0 30.5222 1.31016 29.045 3.42656L19.6447 16.8809C18.7718 18.1238 18.3186 19.5852 18.3186 21.0969C18.3186 23.7172 19.7286 26.1527 21.978 27.4629L32.6876 33.6441L30.5222 36.55C29.5821 37.8098 29.0618 39.3551 29.0618 40.934C29.0618 42.4625 29.5989 43.991 30.6061 45.318L30.8075 45.5867L27.7524 50.1891H13.7863V44.327C13.7863 43.6047 13.2156 43.0336 12.477 43.0336H5.30932C4.57073 43.0336 4 43.6047 4 44.327V62.266C4 62.9883 4.58751 63.5762 5.30932 63.5762H12.477C13.1988 63.5762 13.7863 62.9883 13.7863 62.266V59.9984H27.5007C30.9418 59.9984 34.148 58.2852 36.0448 55.4129L39.167 50.7266L39.486 50.7938C40.0064 50.9113 40.5603 51.0121 41.0975 51.0121C43.7832 51.0121 46.3012 49.5844 47.6944 47.2832L49.9102 43.6047L65.5549 52.6414C65.7564 52.759 65.9746 52.8094 66.2096 52.8094C66.3439 52.8094 66.4614 52.7926 66.5789 52.759C66.9314 52.6582 67.2168 52.4062 67.3846 52.0871L68.845 49.1476L69.1639 49.1645C69.2647 49.1645 69.3486 49.1813 69.4493 49.198C69.5668 49.2148 69.6843 49.2316 69.785 49.2316C76.4324 49.2316 81.8375 43.8062 81.8375 37.1547C81.8375 36.4996 81.7536 35.7941 81.5689 34.9039L81.5018 34.5512L88.2834 31.1582C88.7198 30.9398 88.9884 30.5031 89.0052 30.016C88.9884 29.5121 88.7198 29.0586 88.3002 28.8066ZM11.1341 60.9223H6.60186V45.6371H11.1341V60.9223ZM33.8458 53.9348C32.419 56.068 30.0521 57.3445 27.4839 57.3445H13.7695V52.8094H27.4839C28.5246 52.8094 29.4982 52.2887 30.0689 51.432L32.8051 47.3336L36.6995 49.6684L33.8458 53.9348ZM45.4115 45.9227C44.5218 47.4176 42.8264 48.3414 40.9967 48.3414C40.0903 48.3414 39.2174 48.1062 38.4788 47.6527L33.9298 44.9316C32.5365 44.0918 31.6636 42.5633 31.6636 40.934C31.6636 39.9262 31.9993 38.9352 32.5869 38.1457L34.9537 34.9879L47.5769 42.2777L45.4115 45.9227ZM65.6221 49.6516L23.2873 25.2121C21.8437 24.3723 20.9373 22.8102 20.9373 21.1305C20.9373 20.1562 21.2394 19.2324 21.7934 18.4262L26.5438 11.6402L71.6147 37.6586L65.6221 49.6516ZM70.9769 46.477L70.0872 46.5945L74.3005 38.1457L79.051 35.7773L79.1182 36.466C79.1182 36.5332 79.1349 36.6004 79.1349 36.6676C79.1517 36.8355 79.1685 36.9867 79.1685 37.1547C79.1853 41.8578 75.6602 45.8555 70.9769 46.477Z" fill="#ED1C24"/>
</g>
<defs>
<filter id="filter0_d" x="0" y="0" width="93.0052" height="71.5762" filterUnits="userSpaceOnUse" color-interpolation-filters="sRGB">
<feFlood flood-opacity="0" result="BackgroundImageFix"/>
<feColorMatrix in="SourceAlpha" type="matrix" values="0 0 0 0 0 0 0 0 0 0 0 0 0 0 0 0 0 0 127 0"/>
<feOffset dy="4"/>
<feGaussianBlur stdDeviation="2"/>
<feColorMatrix type="matrix" values="0 0 0 0 0.929412 0 0 0 0 0.109804 0 0 0 0 0.141176 0 0 0 0.2 0"/>
<feBlend mode="normal" in2="BackgroundImageFix" result="effect1_dropShadow"/>
<feBlend mode="normal" in="SourceGraphic" in2="effect1_dropShadow" result="shape"/>
</filter>
</defs>
</svg>

<svg width="94" height="72" viewBox="0 0 94 72" fill="none" xmlns="http://www.w3.org/2000/svg"><g filter="url(#filter0_d)" fill="#ED1C24"><path d="M62.584 42.06c-.722 0-1.31-.589-1.31-1.31 0-.723.588-1.311 1.31-1.311.722 0 1.31.588 1.31 1.31 0 .722-.588 1.31-1.31 1.31zm-3.559-27.144a1.327 1.327 0 100-2.653 1.327 1.327 0 000 2.653z"/><path d="M88.3 28.807L65.454 15.739c-.62-.353-1.41-.168-1.78.436a1.343 1.343 0 00.47 1.882l20.732 11.858-11.499 5.745-45.34-26.17 3.157-4.501a5.494 5.494 0 014.515-2.352 5.55 5.55 0 012.736.722l14.134 8.08c.621.352 1.41.15 1.78-.437a1.352 1.352 0 00-.454-1.881l-14.15-8.096C38.596.353 37.237 0 35.843 0c-2.719 0-5.32 1.31-6.798 3.427l-9.4 13.454a7.3 7.3 0 00-1.326 4.216c0 2.62 1.41 5.056 3.659 6.366l10.71 6.181-2.166 2.906a7.355 7.355 0 00-1.46 4.384c0 1.529.537 3.057 1.544 4.384l.201.269-3.055 4.602H13.786v-5.862c0-.722-.57-1.293-1.309-1.293H5.309c-.738 0-1.309.57-1.309 1.293v17.939c0 .722.588 1.31 1.31 1.31h7.167c.722 0 1.31-.588 1.31-1.31v-2.268H27.5c3.44 0 6.647-1.713 8.544-4.585l3.122-4.686.319.067c.52.117 1.074.218 1.611.218a7.747 7.747 0 006.597-3.729l2.216-3.678 15.645 9.036c.201.118.42.168.655.168.134 0 .251-.016.369-.05.352-.1.638-.353.806-.672l1.46-2.94.319.017c.1 0 .185.017.285.034.118.017.235.034.336.034 6.647 0 12.053-5.426 12.053-12.077 0-.655-.084-1.36-.27-2.251l-.066-.353 6.781-3.393c.437-.218.705-.655.722-1.142a1.465 1.465 0 00-.705-1.21zM11.134 60.922H6.602V45.637h4.532v15.285zm22.712-6.987a7.632 7.632 0 01-6.362 3.41H13.769v-4.536h13.715a3.11 3.11 0 002.585-1.377l2.736-4.098 3.895 2.334-2.854 4.267zm11.566-8.012c-.89 1.495-2.586 2.418-4.415 2.418-.907 0-1.78-.235-2.518-.688l-4.55-2.721a4.696 4.696 0 01-2.265-3.998c0-1.008.335-1.999.923-2.788l2.367-3.158 12.623 7.29-2.166 3.645zm20.21 3.729l-42.335-24.44a4.74 4.74 0 01-2.35-4.081c0-.975.302-1.899.856-2.705l4.75-6.786 45.073 26.02-5.993 11.993zm5.355-3.175l-.89.117 4.213-8.448 4.751-2.369.067.689c0 .067.017.134.017.202.017.168.033.319.033.487.017 4.703-3.508 8.7-8.191 9.322z"/></g><defs><filter id="filter0_d" x="0" y="0" width="93.005" height="71.576" filterUnits="userSpaceOnUse" color-interpolation-filters="sRGB"><feFlood flood-opacity="0" result="BackgroundImageFix"/><feColorMatrix in="SourceAlpha" values="0 0 0 0 0 0 0 0 0 0 0 0 0 0 0 0 0 0 127 0"/><feOffset dy="4"/><feGaussianBlur stdDeviation="2"/><feColorMatrix values="0 0 0 0 0.929412 0 0 0 0 0.109804 0 0 0 0 0.141176 0 0 0 0.2 0"/><feBlend in2="BackgroundImageFix" result="effect1_dropShadow"/><feBlend in="SourceGraphic" in2="effect1_dropShadow" result="shape"/></filter></defs></svg>
